X:91
%%etbk:tnset id:32,pos:1,rep:3x,ant:
%%etbk:wsite http://www.thesession.org/tunes/display/452
%%etbk:color #ffccbf
%%etbk:pldat 2016-08-03T16:12,2015-12-31T14:11,2015-12-29T15:57,2015-11-29T14:55,2015-10-13T16:40,2015-06-11T19:29,2015-05-19T17:23,2015-03-06T17:35,2015-01-22T19:43,2014-12-26T16:15,2014-12-20T15:11,2014-05-14T17:33,2014-05-09T19:15,2014-04-28T18:50,2014-04-11T19:08,2014-04-09T17:43,2014-03-20T18:51,2014-02-05T16:17,2013-05-15T15:40
T: Fred Finn's
Z: Piano Box Version by Martin Fleischmann
H: Created 2014-03-16 /  Last Modified 2016-08-03
M: 4/4
L: 1/8
R: reel
K:Dmaj
|: "D"!1!A3F !1!A!2!B!4!d!2!e | 3(fe!1!d) !2!e!3!f !1!dfed | "G"!2!B2!1!EF !3!GA!5!BG  | "D"G!4!-A2F !1!DE F!4!G| 
"D"!5!A3!1!A !1!A!2!B!4!d!2!e | !3!f!1!d!2!e!3!f !1!dfed  | "G"!2!B2!4!dB "A"!1!A!2!B!4!d!2!e |1 !3!fa 3(gfe) !3!fe!1!dB :|2 !3!fa 3(gfe) !3!f!1!ddd||
|: !2!fd!4!ad !5!bd!4!a!2!f | !1!d!2!fa!2!f !2!f!1!e!2!d!1!e | "bm"!2!f!5!bba !5!b2ba | !2!f!5!baf "A"!2!f!1!e!2!e!1!e |
!2!fd!4!ad !5!bd!4!a!2!f | !1!d!3!f!5!a!3!f !3!f!2!e!1!d!2!B |"D"!1!A3!1!A !1!A!2!B!4!d!2!e  | !3!fage !3!f!2!ddd:|


